icons/medium-line.svg

<svg xmlns="http://www.w3.org/2000/svg" width="24" height="24" fill="none"><g clip-path="url(#a)"><g><path fill="#121212" d="M4 3H20C20.2652 3 20.5196 3.10536 20.7071 3.29289C20.8946 3.48043 21 3.73478 21 4V20C21 20.2652 20.8946 20.5196 20.7071 20.7071C20.5196 20.8946 20.2652 21 20 21H4C3.73478 21 3.48043 20.8946 3.29289 20.7071C3.10536 20.5196 3 20.2652 3 20V4C3 3.73478 3.10536 3.48043 3.29289 3.29289C3.48043 3.10536 3.73478 3 4 3ZM5 5V19H19V5H5ZM17.3 15.94L18.255 16.894V16.944H13.334V16.894L14.338 15.94C14.438 15.84 14.488 15.74 14.488 15.589V9.664C14.488 9.412 14.488 9.061 14.539 8.76L11.225 17.045H11.175L7.76 9.412C7.71 9.212 7.66 9.212 7.61 9.112V14.132C7.559 14.484 7.61 14.785 7.76 15.087L9.116 16.894V16.944H5.5V16.894L6.856 15.036C7.006 14.736 7.056 14.384 7.006 14.082V8.56C7.006 8.309 6.956 8.007 6.756 7.807L5.851 6.55V6.5H9.366L12.278 12.978L14.84 6.5H18.255V6.55L17.301 7.655C17.201 7.755 17.151 7.906 17.151 8.006V15.639C17.151 15.739 17.201 15.89 17.301 15.94H17.3Z"/></g></g><defs><clipPath id="a"><rect width="24" height="24" fill="white"/></clipPath></defs></svg>

<svg width="24" height="24" fill="none" xmlns="http://www.w3.org/2000/svg"><g clip-path="url(#a)"><path d="M4 3h16a1 1 0 0 1 1 1v16a1 1 0 0 1-1 1H4a1 1 0 0 1-1-1V4a1 1 0 0 1 1-1Zm1 2v14h14V5H5Zm12.3 10.94.955.954v.05h-4.921v-.05l1.004-.954c.1-.1.15-.2.15-.351V9.664c0-.252 0-.603.051-.904l-3.314 8.285h-.05L7.76 9.412c-.05-.2-.1-.2-.15-.3v5.02c-.051.352 0 .653.15.955l1.356 1.807v.05H5.5v-.05l1.356-1.858c.15-.3.2-.652.15-.954V8.56c0-.251-.05-.553-.25-.753L5.851 6.55V6.5h3.515l2.912 6.478L14.84 6.5h3.415v.05l-.954 1.105c-.1.1-.15.251-.15.351v7.633c0 .1.05.251.15.301H17.3Z" /></g><defs><clipPath id="a"><path fill="#fff" d="M0 0h24v24H0z"/></clipPath></defs></svg>
